src/assets/icons/chains/fantom.svg

<svg width="32" height="32" viewBox="0 0 32 32" fill="none" xmlns="http://www.w3.org/2000/svg">
<rect width="32" height="32" fill="#1969FF"/>
<path d="M15.0298 5.08814C15.5688 4.80395 16.389 4.80395 16.9281 5.08814L22.4286 7.98798C22.7533 8.15912 22.9316 8.41416 22.9635 8.67744H22.9688V23.2534C22.9616 23.5406 22.7816 23.8259 22.4286 24.012L16.9281 26.9119C16.389 27.196 15.5688 27.196 15.0298 26.9119L9.52926 24.012C9.17773 23.8267 9.00903 23.5394 9.00068 23.2534C8.99982 23.2241 8.99974 23.1999 9.00065 23.18L9.00068 8.77558C8.99986 8.75532 8.99985 8.73514 9.00066 8.71506L9.00068 8.67744H9.00313C9.02756 8.41125 9.19777 8.16273 9.52926 7.98798L15.0298 5.08814ZM22.0938 16.7812L16.9264 19.5144C16.3881 19.7991 15.5691 19.7991 15.0308 19.5144L9.875 16.7873V23.2084L15.0308 25.921C15.3355 26.084 15.6523 26.2428 15.9608 26.2498L15.9786 26.25C16.2865 26.251 16.5854 26.0945 16.8885 25.9462L22.0938 23.185V16.7812ZM8.13824 22.9375C8.13824 23.4963 8.20261 23.8635 8.33041 24.1223C8.43634 24.3367 8.59527 24.5006 8.88548 24.7L8.90204 24.7113C8.96573 24.7547 9.03589 24.8001 9.12129 24.8534L9.222 24.9156L9.53125 25.1039L9.0877 25.8438L8.74156 25.6328L8.68338 25.5968C8.5833 25.5344 8.50035 25.4809 8.42298 25.4283C7.59589 24.8657 7.28743 24.2523 7.28134 22.9764L7.28125 22.9375H8.13824ZM15.5625 12.9062C15.5225 12.92 15.485 12.936 15.4508 12.9541L9.95864 15.8632C9.95288 15.8663 9.94738 15.8693 9.94215 15.8723L9.9375 15.875L9.94612 15.88L9.95864 15.8868L15.4508 18.7959C15.485 18.814 15.5225 18.83 15.5625 18.8438V12.9062ZM16.4375 12.9062V18.8438C16.4776 18.83 16.5151 18.814 16.5493 18.7959L22.0413 15.8868C22.0471 15.8837 22.0526 15.8807 22.0578 15.8777L22.0625 15.875L22.0539 15.87L22.0413 15.8632L16.5493 12.9541C16.5151 12.936 16.4776 12.92 16.4375 12.9062ZM22.0938 9.71875L17.1562 12.3125L22.0938 14.9062V9.71875ZM9.875 9.71875V14.9062L14.8125 12.3125L9.875 9.71875ZM16.5445 5.86335C16.2586 5.71222 15.7414 5.71222 15.4556 5.86335L9.95866 8.76949C9.95289 8.77255 9.94739 8.77556 9.94215 8.77856L9.9375 8.78125L9.94613 8.78619L9.95866 8.793L15.4556 11.6991C15.7414 11.8503 16.2586 11.8503 16.5445 11.6991L22.0413 8.793C22.0471 8.78994 22.0526 8.78694 22.0578 8.78396L22.0625 8.78125L22.0539 8.77631L22.0413 8.76949L16.5445 5.86335ZM22.9123 6.15625L23.2584 6.36716L23.3166 6.4032C23.4167 6.46553 23.4996 6.51908 23.577 6.57171C24.4041 7.1343 24.7126 7.74766 24.7187 9.02363L24.7188 9.0625H23.8618C23.8618 8.5037 23.7974 8.13647 23.6696 7.87771C23.5637 7.66328 23.4047 7.49939 23.1145 7.29998L23.098 7.28865C23.0343 7.24533 22.9641 7.19994 22.8787 7.14661L22.778 7.08438L22.4688 6.89609L22.9123 6.15625Z" fill="white"/>
</svg>

<svg xmlns="http://www.w3.org/2000/svg" width="32" height="32" fill="none" viewBox="0 0 32 32">
  <path fill="#1969FF" d="M0 0h32v32H0z"/>
  <path fill="#fff" d="M15.03 5.088c.539-.284 1.359-.284 1.898 0l5.5 2.9c.325.171.504.426.535.69h.006v14.575c-.007.288-.187.573-.54.759l-5.5 2.9c-.54.284-1.36.284-1.9 0l-5.5-2.9c-.351-.185-.52-.473-.528-.759V8.677h.002c.025-.266.195-.514.526-.689l5.5-2.9Zm7.064 11.693-5.168 2.733c-.538.285-1.357.285-1.895 0l-5.156-2.727v6.421l5.156 2.713c.304.163.621.322.93.329h.018c.308.001.606-.155.91-.304l5.205-2.761v-6.404ZM8.138 22.938c0 .558.065.925.192 1.184.106.215.265.379.555.578l.017.011c.064.044.134.09.22.142l.1.063.31.188-.444.74-.346-.211-.059-.036a7.776 7.776 0 0 1-.26-.169c-.827-.562-1.136-1.176-1.142-2.452v-.038h.857Zm7.425-10.032a.79.79 0 0 0-.112.048l-5.492 2.91a.701.701 0 0 0-.017.008l-.005.003.01.005.012.007 5.492 2.909a.79.79 0 0 0 .111.048v-5.938Zm.874 0v5.938a.786.786 0 0 0 .112-.048l5.492-2.91a.585.585 0 0 0 .017-.008l.005-.003-.01-.005-.012-.007-5.492-2.909a.786.786 0 0 0-.111-.048Zm5.657-3.187-4.938 2.594 4.938 2.593V9.72Zm-12.219 0v5.187l4.938-2.594L9.875 9.72Zm6.67-3.856c-.286-.15-.804-.15-1.09 0L9.96 8.77a.584.584 0 0 0-.017.01l-.005.002.01.005.012.007 5.497 2.906c.285.151.803.151 1.088 0l5.497-2.906a.54.54 0 0 0 .017-.009l.005-.003-.01-.005-.012-.007-5.497-2.906Zm6.367.293.346.211.059.036c.1.063.183.116.26.169.827.562 1.136 1.176 1.142 2.452v.039h-.857c0-.56-.065-.927-.192-1.185-.106-.215-.265-.379-.556-.578l-.016-.011a6.672 6.672 0 0 0-.22-.142l-.1-.063-.31-.188.444-.74Z"/>
</svg>
